X:1
L:1/8
Q:1/4=120
M:3/4
K:D
""^With feeling"" A2 | (d>e fg) (ec) | d z Td2 (ec) | A z A2 (GF) | G3 (A Bc) | d2- d2 (AB/c/) || 
 (d>e fg) (ec) | d z d2 e>c | A3 B (GF) | (E2 D2) D2 | D4 |] (dB) | (cB AG) (EF) | D z =c2 (BA) | 
 G z A2 (GF) | G3 (A Bc) | d2- d2 (Ac) || (d>e) (fg ec) | d3 (c/d/) (ec) | A3 (B/A/) GF | 
 (TE2 D2) D2 | D4 |]
